X: 1119
T: Hüsnüne Mâil Gönlüm Ezelden
C: Dede Efendi
O: Turkey
F: http://compmusic.upf.edu/node/140
N: evcara--sarki--aksaksemai--husnune_mail--dede_efendi
N: makam= evcara
N: form= sarki
N: usul= aksaksemai = 10/8
M: 10/8
L: 1/16
K: C _1/4B ^f ^c ^A
Q: 1/4=120
%%MIDI tuningsystem comma53
f4 ^efg2 =aba2 g2fg fedc  | d^efg =ab=c'2 baag fef4z2  | 
w:  ARANAĞME  |   | 
^efg2 f2e2 d2cd efed cBAG  | FGAB =c2{d}cB2AAG GFF4z2  | 
w:   |   | 
f4 ^efg2 =aba2 g2fg fedc  | d^efg =ab=c'2 baag fef4z2  | 
w:  ARANAĞME  |   | 
^efg2 f2e2 d2cd efed cBAG  | FGAB =c2{d}cB2AAG GFF4z2  | 
w:   |   | 
f4 f2f4=a4a^g f^ed2  | cd^ef g4 feb2 =agag fef2  | 
w:  Hüs nü ne  mâ il   |  gön *  *  *  lüm  e *  zel *  *  den   | 
f4 f2f4=a4a^g f^ed2  | cd^ef g4 feb2 =agag fef2  | 
w:  Hüs nü ne  mâ il   |  gön *  *  *  lüm  e *  zel *  *  den   | 
f2=a2 a2a3/2^g/ f2a4ag f^ed2  | cd^ef g2gf2e{f}ed2cdc BAB2  | 
w:  Ben *  de nem  *  *  ben den   |  geç *  *  *  me zem  *  *  *  sen *  *  den   | 
c4 c2d3/2c/ B2cd ^efed cBAG  | FGAB =c2{d}cB2AAG GFF4z2  | 
w:  Ben de nem  *  *  ben *  *  *  den   |  geç *  *  *  me *  zem  *  *  sen *  *  *  den   | 
B4 c2c3dcB ABc4z2  | c2d2 {f}^eddc2BBA BdcB AGF^E  | 
w:  Â şı kım  *  â *  *  *  şık   |  cân_ *  *  ü  *  gö *  *  nül *  *  *  den   | 
F4 c2c3dcB ABc4z2  | cd^ef g4 feb2 =agag fef2  | 
w:  Â şı kım  *  â *  *  *  şık   |  cân_ *  *  *  ü  gö *  nül *  *  den   | 
f2=a2 a2a3/2^g/ f2a4ag f^ed2  | cd^ef g2gf2e{f}ed2cdc BAB2  | 
w:  Ben *  de nem  *  *  ben den   |  geç *  *  *  me zem  *  *  *  sen *  *  den   | 
c4 c2d3/2c/ B2cd ^efed cBAG  | FGAB =c2{d}cB2AAG GFF4z2  | 
w:  Ben de nem  *  *  ben *  *  *  den   |  geç *  *  *  me *  zem  *  *  sen *  *  *  den   | 
f4 ^efg2 =aba2 g2fg fedc  | d^efg =ab=c'2 baag fef4z2  | 
w:  ARANAĞME  |   | 
^efg2 f2e2 d2cd efed cBAG  | FGAB =c2{d}cB2AAG GFF4z2  | 
w:   |   | 
f4 f2f4=a4a^g f^ed2  | cd^ef g2g3fb2 =agag fef2  | 
w:  Ağ la rım  gül mem   |  göz *  *  *  ya şım  *  sil *  *  mem    | 
f4 f2f4=a4a^g f^ed2  | cd^ef g2g3fb2 =agag fef2  | 
w:  Ağ la rım  gül mem   |  göz *  *  *  ya şım  *  sil *  *  mem    | 
f2=a4a3/2^g/ f2a4ag f^ed2  | cd^ef g2gf2e{f}ed2cdc BAB2  | 
w:  Gö nül  ver  *  *  el den   |  n'ol *  *  *  du ğum  *  *  *  bil *  *  mem    | 
c2c4d3/2c/ B2cd ^efed cBAG  | FGAB =c2{d}cB2AAG GFF4z2  | 
w:  Gö nül  ver  *  *  el *  *  *  den   |  n'ol *  *  *  du *  ğum  *  *  bil *  *  *  mem    | 
B4 c2c3dcB ABc4z2  | c2d2 {f}^eddc2BBA BdcB AGF^E  | 
w:  Dön mem  zül *  fün *  *  *  den   |  n'ol *  *  du *  ğum  *  *  bil *  *  *  mem    | 
F4 c2c3dcB ABc4z2  | cd^ef g4 gfb2 =agag fef2  | 
w:  Dön mem  zül *  fün *  *  *  den   |  bil *  *  *  lâ hi  *  geç *  *  mem    | 
f2=a2 a2a3/2^g/ f2a4ag f^ed2  | cd^ef g2gf2e{f}ed2cdc BAB2  | 
w:  Ben *  de nem  *  *  ben den   |  geç *  *  *  me zem  *  *  *  sen *  *  den   | 
c4 c2d3/2c/ B2cd ^efed cBAG  | FGAB =c2{d}cB2AAG GFF4z2  | 
w:  Ben de nem  *  *  ben *  *  *  den   |  geç *  *  *  me *  zem  *  *  sen *  *  *  den   | 
|


